public/avatar/item1/13.svg

<svg xmlns:xlink="http://www.w3.org/1999/xlink" height="65.4" width="80.15" xmlns="http://www.w3.org/2000/svg"><use height="28.6" transform="translate(8.3 28.75)" width="40.35" xlink:href="#a"/><defs><g id="a" fill-rule="evenodd"><path d="M15.05 15.65q.25-.6.65-.7.3-.05.9 2l.45 2.6q-8.2 10.7-25.6 17.85l.8 2.15q-.15.7-2.75 2.4-2.45 1.6-2.95 1.6t-7.1-3.75q-3.25-6.95-2.65-8.1.35-.7 3.35-2.1 1.5-.65 2.95-1.2l2.95 2.95v.3q.5-.15 1.55-1.35l1.1 2.1q13.6-4.7 26.35-16.75" fill="#4c2814" transform="translate(23.3 -14.95)"/><path d="m15.65 15.85.9 3.65-6.2 6.05Q2 32.45-8.85 36.7q-2.3-.7-4.05-3.15Q-3.1 30.5 7.25 22.9l8.4-7.05" fill="#915236" transform="translate(23.3 -14.95)"/><path d="M-.7 31.55q1.55.15 4.5-1.2-5.2 3.55-13.2 6.7-1.7-1.05-3.4-3.5 5-1.55 10.1-4.3l.05 1.05q.35 1.1 1.95 1.25" fill="#652f13" transform="translate(23.3 -14.95)"/><path d="m7.95 22.35 4.45-3.55 3.3-2.95.95 3.65-2.3 2.5q-.2-.8-3.35-.3l-3.05.65" fill="#a56747" transform="translate(23.3 -14.95)"/><path d="M-13.25 31.25q-.2 11.5-.5 11.35-5.7-2.9-5.9-3.2-3.25-6.3-2.7-7.4.35-.7 3.35-1.95l2.9-1.15q1.45 1.2 2.85 2.35" fill="#652f13" transform="translate(23.3 -14.95)"/><path d="M-12.45 31.45q4.1 6.5 3.85 7.85-.2.7-2.25 2.05-2.05 1.35-2.65 1.25-.6-.05-2.5-3.85-1.9-3.8-1.6-4.4.6-1.05 2.8-2.2 2.15-1.05 2.35-.7" fill="#915236" transform="translate(23.3 -14.95)"/><path d="m-22.25 33.4-.2-1.05 2.75 3.15q.2 0 .6-.35.5-.45.45-.7l-3.05-1.8q3.1 1.4 3.6 1.1 4.5-2.45 4.05-2.8l-.85-1.1 2.35 1.4Q-8.4 39-8.6 38.95l-4.3-6.7q-.55-.05-3.85 2.2-.35.25 1.05 4.05l1.45 3.75-3.95-6.8q-1.25 1.15-1.5.9l-2.55-2.95" fill="#b47f5a" transform="translate(23.3 -14.95)"/><path d="m-20.55 34.95.85.55.6 1.85-.8-.7-.65-1.7" fill="#c0cbd1" transform="translate(23.3 -14.95)"/></g></defs></svg>

<?xml version="1.0" encoding="UTF-8" standalone="no"?>
<svg xmlns:xlink="http://www.w3.org/1999/xlink" height="65.4px" width="80.15px" xmlns="http://www.w3.org/2000/svg">
  <g transform="matrix(1.0, 0.0, 0.0, 1.0, 31.6, 13.8)">
    <use height="28.6" transform="matrix(1.0, 0.0, 0.0, 1.0, -23.3, 14.95)" width="40.35" xlink:href="#shape0"/>
  </g>
  <defs>
    <g id="shape0" transform="matrix(1.0, 0.0, 0.0, 1.0, 23.3, -14.95)">
      <path d="M15.05 15.65 Q15.3 15.05 15.7 14.95 16.0 14.9 16.6 16.95 L17.05 19.55 Q8.85 30.25 -8.55 37.4 L-7.75 39.55 Q-7.9 40.25 -10.5 41.95 -12.95 43.55 -13.45 43.55 -13.95 43.55 -20.55 39.8 -23.8 32.85 -23.2 31.7 -22.85 31.0 -19.85 29.6 -18.35 28.95 -16.9 28.4 L-13.95 31.35 -13.95 31.65 Q-13.45 31.5 -12.4 30.3 L-11.3 32.4 Q2.3 27.7 15.05 15.65" fill="#4c2814" fill-rule="evenodd" stroke="none"/>
      <path d="M15.65 15.85 L16.55 19.5 10.35 25.55 Q2.0 32.45 -8.85 36.7 -11.15 36.0 -12.9 33.55 -3.1 30.5 7.25 22.9 L15.65 15.85" fill="#915236" fill-rule="evenodd" stroke="none"/>
      <path d="M-0.7 31.55 Q0.85 31.7 3.8 30.35 -1.4 33.9 -9.4 37.05 -11.1 36.0 -12.8 33.55 -7.8 32.0 -2.7 29.25 L-2.65 30.3 Q-2.3 31.4 -0.7 31.55" fill="#652f13" fill-rule="evenodd" stroke="none"/>
      <path d="M7.95 22.35 L12.4 18.8 15.7 15.85 16.65 19.5 14.35 22.0 Q14.15 21.2 11.0 21.7 L7.95 22.35" fill="#a56747" fill-rule="evenodd" stroke="none"/>
      <path d="M-13.25 31.25 Q-13.45 42.75 -13.75 42.6 -19.45 39.7 -19.65 39.4 -22.9 33.1 -22.35 32.0 -22.0 31.3 -19.0 30.05 L-16.1 28.9 Q-14.65 30.1 -13.25 31.25" fill="#652f13" fill-rule="evenodd" stroke="none"/>
      <path d="M-12.45 31.45 Q-8.35 37.95 -8.6 39.3 -8.8 40.0 -10.85 41.35 -12.9 42.7 -13.5 42.6 -14.1 42.55 -16.0 38.75 -17.9 34.95 -17.6 34.35 -17.0 33.3 -14.8 32.15 -12.65 31.1 -12.45 31.45" fill="#915236" fill-rule="evenodd" stroke="none"/>
      <path d="M-22.25 33.4 L-22.45 32.35 -19.7 35.5 Q-19.5 35.5 -19.1 35.15 -18.6 34.7 -18.65 34.45 L-21.7 32.65 Q-18.6 34.05 -18.1 33.75 -13.6 31.3 -14.05 30.95 L-14.9 29.85 -12.55 31.25 Q-8.4 39.0 -8.6 38.95 L-12.9 32.25 Q-13.45 32.2 -16.75 34.45 -17.1 34.7 -15.7 38.5 L-14.25 42.25 -18.2 35.45 Q-19.45 36.6 -19.7 36.35 L-22.25 33.4" fill="#b47f5a" fill-rule="evenodd" stroke="none"/>
      <path d="M-20.55 34.95 L-19.7 35.5 -19.1 37.35 -19.9 36.65 -20.55 34.95" fill="#c0cbd1" fill-rule="evenodd" stroke="none"/>
    </g>
  </defs>
</svg>
